!!!COM: Hugo Wolf
!!!CNT: Deutscher
!!!TXO: Deutsche 
!!!OTL: Der Ga2rtner
!!!ONM: No. 17
!!!ODT: 1888/
!!!LYR: Moericke
!!!ENC: Brian Bice
!!!YOR: 65 Songs for voice and piano, International Music Company, 1960
!!NB: Vocal melody and text only encoded.
**kern	**silbe
*clefG2	*
*k[f#c#]	*
*M6/8	*
=4	=4
4r	.
8r	.
4r	.
{8a	{Auf
=5	=5
4.a	ih-
4a	-rem
8b	Leib-
=6	=6
4.a	-ro2ss-
4dd	-lein,
8cc#	so
=7	=7
4.b	wiess
4dd	wie
8gg	der
=8	=8
4.ff#}	Schnee,}
4r	.
{8dd	{die
=9	=9
[4.ee	scho2n-
8ee]	|
8ff#	-ste
8ee	Prin-
=10	=10
4.dd	-zes-
4cc#	-sin
8b	reit't
=11	=11
(4a	durch
8cc#)	|
4b	die
8ee	Al-
=12	=12
2.ee}	-lee.}
=14	=14
4r	.
8r	.
4r	.
{8a	{Der
=15	=15
4.a	Weg,
4a	den
8b	das
=16	=16
4.a	Ro2ss-
4dd	-lein
8cc#	hin-
=17	=17
4.b	-tan-
4dd	-zet
8gg	so
=18	=18
4.ff#}	hold,}
4r	.
{8dd	{der
=19	=19
[4.ee	Sand,
8ee]	|
8ff#	den
8ee	ich
=20	=20
4.dd	streu-
4cc#	-te,
8b	er
=21	=21
(4a	blin-
8cc#)	|
4b	-ket
8ee	wie
=22	=22
2.ee}	Gold!}
=24	=24
4r	.
8r	.
4r	.
{8a	{Du
=25	=25
4.b	ro-
4b	-sen-
8b	-farb's
=26	=26
4.a	Hu2t-
4dd	-lein
8cc#	wohl
=27	=27
4.b	auf
4dd	und
8b	wohl
=28	=28
4.a}	ab,}
4r	.
{8a	{o
=29	=29
4.a#	wirf
4ff#	ei-
8ee	-ne
=30	=30
4.dd	Fe-
4cc#	-der
8b	ver-
=31	=31
4.cc#	-stoh-
4ff#	-len
8cc#	her-
=32	=32
4.dd}	-ab!}
4r	.
{8dd	{Und
=33	=33
4.ee	willst
4ee	du
8ee	da-
=34	=34
4dd	-ge-
8b	-gen
8r	.
8dd	ei-
8dd	-ne
=35	=35
4.ee	Blu2-
4gg	-te
8ee	von
=36	=36
4.dd}	mir,}
4r	.
{8dd	{nimm
=37	=37
4.ff#	tau-
4dd	-send
8dd	fu2r
=38	=38
4.ff#	ei-
4dd	-ne,
8dd	nimm
=39	=39
4.ff#	al-
4ee	-le
8a	da-
=40	=40
4.dd}	-fu2r!}
4r	.
{8dd	{Nimm
=41	=41
4.gg	tau-
4gg	-send
8gg	fu2r
=42	=42
4.ff#	ei-
4dd	-ne,
8dd	nimm
=43	=43
4.ff#	al-
4ee	-le
8cc#	da-
=44	=44
[4.dd	-fu2r!
8dd]}	|}
8r	.
8r	.
*-	*-
